X:1
T:Title
%%score { 1 | 2 }
L:1/8
M:4/4
K:Ab
V:1 treble nm="Grand Piano"
V:2 bass 
V:1
 z4 z2 z[Q:1/4=88] [CE] | [CE]>[Cc] [Cc]>[CG] [CG]>[CB] [CB]>[CA] |[M:7/8] [CE]>[CF][CG]>[CA] G3 | %3
[M:1/8] E |[M:4/4] E>d d>c c>B B>c |[M:7/8] [=DB]>[Dc][DB]>[DF] [_DB]3 |[M:1/8] [DE] | %7
[M:4/4] [CE]>[Cc] [Cc]>[CG] [CG]>[CB] [CB]>[CA] |[M:7/8] [CE]>[CE][DF]>[E_G] [DF]3 |[M:1/8] [DF] | %10
[M:4/4] [FA]>[FA] [FG]>[FA] e>e c>A |[M:3/4] c>c B>B [CA]2 |[M:1/4] [DE]2 | %13
[M:4/4] [CA]>[B,G] [CA]>[Ec] e>c A>F | G>A G>_G =G3 E | d>c d>E d>c d>=d | e>B =A>B c3 c | %17
 e>e c>c [CA]>[CA] [CE]>A | f>e d>c [Fd]3 [B,F] | [_CFA]>[CFA] [CFG]>[CFA] e>e c>A | %20
[M:7/8] c>cB>B [CA]3 |] %21
V:2
 z4 z2 z [A,,A,] | [A,,A,]>[A,,E,] [A,,E,]>[A,,E,] [A,,E,]>[A,,E,] [A,,E,]>[A,,E,] | %2
[M:7/8] [A,,A,]>[A,,A,][A,,A,]>[A,,A,] [E,B,D]3 |[M:1/8] [E,G,D] | %4
[M:4/4] [E,G,D]>[E,B,E] [E,B,E]>[E,A,E] [E,A,E]>[E,G,E] [E,G,E]>[E,G,E] | %5
[M:7/8] [B,,A,]>[B,,A,][B,,A,]>[B,,A,] [E,G,]3 |[M:1/8] [E,G,] | %7
[M:4/4] [A,,A,]>[A,,E,] [A,,E,]>[A,,E,] [A,,E,]>[A,,E,] [A,,E,]>[A,,E,] | %8
[M:7/8] [A,,A,]>[A,,A,][A,,A,]>[C,A,] [D,A,]3 |[M:1/8] [D,A,] | %10
[M:4/4] [=D,_C]>[D,C] [D,C]>[D,C] [E,=CE]>[E,CE] [E,A,E]>[E,CE] | %11
[M:3/4] [E,A,E]>[E,A,E] [E,G,D]>[E,G,D] [A,,A,]2 |[M:1/4] [E,G,]2 | %13
[M:4/4] [A,,A,]>[A,,A,] [A,,A,]>[A,,A,] [A,CE]>[A,E] [A,C]>[A,C] | %14
 [E,B,D]>[E,B,D] [E,B,D]>[E,=A,D] [E,B,D]3 [E,G,] | %15
 [E,B,E]>[E,=A,E] [E,B,E]>[E,G,] [E,B,E]>[E,A,E] [E,B,E]>[E,_CE] | %16
 [E,CE]>[E,G,E] [E,_G,E]>[E,=G,E] [A,E]3 [A,E] | %17
 [A,CE]>[A,CE] [A,E]>[A,E] [A,,A,]>[A,,G,] [A,,A,]>[A,C] | %18
 [F,=A,F]>[F,A,F] [F,A,F]>[F,A,F] [B,,B,]3 D, | =D,>D, D,>D, [E,CE]>[E,CE] [E,A,E]>[E,CE] | %20
[M:7/8] [E,A,E]>[E,A,E][E,G,D]>[E,G,D] [A,,A,]3 |] %21

